X: 42906
T: Will You Come Home With Me?
R: jig
M: 6/8
K: Gmajor
|:Bc|d2 g fdc|B2 d cAF|GDG ADA|BDB ABc|
d2 g fdc|B2 d cAF|GDG AGF|GDB G:|
|:Bc|d2 B c2 A|B2 d cAF|GDG ADA|BDB ABc|
d2 B cc/B/A|BGd cAF|G2 G AGF|GDB G:|

